build/category/PalleteOutline.svg

<svg xmlns="http://www.w3.org/2000/svg" fill="none" viewBox="0 0 24 24" focusable="false"><path d="M0 0H24V24H0z"/><path fill="#74767B" fill-rule="evenodd" d="M2.96875 11.9998C2.96875 7.0121 7.0121 2.96875 11.9998 2.96875C16.9436 2.96875 21.0309 6.55655 21.0309 11.5867C21.0309 13.196 19.7263 14.5005 18.1171 14.5005L16.9086 14.5005C15.9092 14.5005 15.0991 15.3107 15.0991 16.3101L15.0991 17.9317C15.0991 19.6433 13.7115 21.0309 11.9998 21.0309C7.0121 21.0309 2.96875 16.9876 2.96875 11.9998ZM11.9998 4.26875C7.73007 4.26875 4.26875 7.73007 4.26875 11.9998C4.26875 16.2696 7.73007 19.7309 11.9998 19.7309C12.9935 19.7309 13.7991 18.9254 13.7991 17.9317L13.7991 16.3101C13.7991 14.5927 15.1913 13.2005 16.9086 13.2005L18.1171 13.2005C19.0084 13.2005 19.7309 12.478 19.7309 11.5867C19.7309 7.35935 16.3135 4.26875 11.9998 4.26875ZM8.33051 7.8999C8.33051 8.45219 8.77823 8.8999 9.33051 8.8999C9.8828 8.8999 10.3305 8.45219 10.3305 7.8999C10.3305 7.34762 9.8828 6.8999 9.33051 6.8999C8.77823 6.8999 8.33051 7.34762 8.33051 7.8999ZM12.9975 9.41144C12.9975 10.6743 14.0213 11.6981 15.2842 11.6981C16.5471 11.6981 17.5709 10.6743 17.5709 9.41144C17.5709 8.14854 16.5471 7.12476 15.2842 7.12476C14.0213 7.12476 12.9975 8.14854 12.9975 9.41144ZM14.2975 9.41144C14.2975 9.95638 14.7393 10.3981 15.2842 10.3981C15.8291 10.3981 16.2709 9.95638 16.2709 9.41144C16.2709 8.86651 15.8291 8.42476 15.2842 8.42476C14.7393 8.42476 14.2975 8.86651 14.2975 9.41144ZM6.29587 11.9998C6.29587 12.552 6.74358 12.9998 7.29587 12.9998C7.84815 12.9998 8.29587 12.552 8.29587 11.9998C8.29587 11.4475 7.84815 10.9998 7.29587 10.9998C6.74359 10.9998 6.29587 11.4475 6.29587 11.9998ZM9.58933 14.9088C10.1228 15.0517 10.4394 15.6 10.2964 16.1335C10.1535 16.667 9.60516 16.9835 9.07169 16.8406C8.53823 16.6977 8.22165 16.1493 8.36459 15.6159C8.50753 15.0824 9.05587 14.7658 9.58933 14.9088Z"/></svg>

<svg xmlns="http://www.w3.org/2000/svg" fill="none" viewBox="0 0 24 24" focusable="false"><path fill="#74767B" fill-rule="evenodd" d="M2.96 11.99c0-4.98 4.05-9.03 9.03-9.03 4.95 0 9.04 3.59 9.04 8.62 0 1.61-1.31 2.92-2.92 2.92H16.9c-1 0-1.81.81-1.81 1.81v1.62c0 1.71-1.38 3.1-3.1 3.1-4.98 0-9.03-4.05-9.03-9.04m9.03-7.73c-4.27 0-7.73 3.47-7.73 7.73 0 4.27 3.46 7.74 7.73 7.74 1 0 1.8-.81 1.8-1.8v-1.62c0-1.72 1.4-3.11 3.11-3.11h1.21c.89 0 1.62-.73 1.62-1.62 0-4.23-3.42-7.32-7.74-7.32M8.33 7.89c0 .56.44 1 1 1 .55 0 1-.44 1-1 0-.55-.45-1-1-1-.56 0-1 .45-1 1m4.66 1.52c0 1.26 1.03 2.28 2.29 2.28s2.29-1.02 2.29-2.28a2.29 2.29 0 1 0-4.58 0m1.3 0c0 .54.44.98.99.98.54 0 .99-.44.99-.98 0-.55-.45-.99-.99-.99-.55 0-.99.44-.99.99m-8 2.58c0 .56.45 1 1 1s1-.44 1-1c0-.55-.45-1-1-1s-1 .45-1 1m3.29 2.91a1.002 1.002 0 0 1-.51 1.94 1.002 1.002 0 0 1 .51-1.94"/></svg>
